svg/UnitedNations-Flags/flag-tj.svg

<?xml version="1.0" encoding="UTF-8" standalone="no"?>
<!-- Created with Inkscape (http://www.inkscape.org/) --><svg height="256" id="svg3446" inkscape:output_extension="org.inkscape.output.svg.inkscape" inkscape:version="0.46" sodipodi:docbase="C:\Documents and Settings\Fam. Ventocilla\Mis documentos\{70443084}" sodipodi:docname="Flag_of_Tajikistan.svg" sodipodi:version="0.32" version="1.0" width="256" xmlns="http://www.w3.org/2000/svg" xmlns:cc="http://creativecommons.org/ns#" xmlns:dc="http://purl.org/dc/elements/1.1/" xmlns:inkscape="http://www.inkscape.org/namespaces/inkscape" xmlns:rdf="http://www.w3.org/1999/02/22-rdf-syntax-ns#" xmlns:sodipodi="http://sodipodi.sourceforge.net/DTD/sodipodi-0.dtd" xmlns:svg="http://www.w3.org/2000/svg" xmlns:xlink="http://www.w3.org/1999/xlink">
  <metadata>
    <rdf:RDF xmlns:cc="http://web.resource.org/cc/" xmlns:dc="http://purl.org/dc/elements/1.1/" xmlns:rdf="http://www.w3.org/1999/02/22-rdf-syntax-ns#">
      <cc:Work rdf:about="">
        <dc:title></dc:title>
        <dc:description></dc:description>
        <dc:subject>
          <rdf:Bag>
            <rdf:li>unsorted</rdf:li>
          </rdf:Bag>
        </dc:subject>
        <dc:publisher>
          <cc:Agent rdf:about="http://www.openclipart.org/">
            <dc:title>Open Clip Art Library, Source: Wikimedia Commons, Source: Wikimedia Commons, Source: Wikimedia Commons, Source: Wikimedia Commons</dc:title>
          </cc:Agent>
        </dc:publisher>
        <dc:creator>
          <cc:Agent>
            <dc:title></dc:title>
          </cc:Agent>
        </dc:creator>
        <dc:rights>
          <cc:Agent>
            <dc:title></dc:title>
          </cc:Agent>
        </dc:rights>
        <dc:date></dc:date>
        <dc:format>image/svg+xml</dc:format>
        <dc:type rdf:resource="http://purl.org/dc/dcmitype/StillImage"/>
        <cc:license rdf:resource="http://en.wikipedia.org/wiki/Public_domain"/>
        <dc:language>en</dc:language>
      </cc:Work>
    </rdf:RDF>
  </metadata>
  <sodipodi:namedview bordercolor="#666666" borderopacity="1.0" gridtolerance="10.0" guidetolerance="10.0" id="base" inkscape:current-layer="svg3446" inkscape:cx="622.10148" inkscape:cy="295.2683" inkscape:pageopacity="0.0" inkscape:pageshadow="2" inkscape:window-height="712" inkscape:window-width="1024" inkscape:window-x="0" inkscape:window-y="165" inkscape:zoom="0.754" objecttolerance="10.0" pagecolor="#ffffff" showgrid="false"/>
  <defs id="defs3448">
    <inkscape:perspective id="perspective2411" inkscape:persp3d-origin="500 : 166.66667 : 1" inkscape:vp_x="0 : 250 : 1" inkscape:vp_y="0 : 1000 : 0" inkscape:vp_z="1000 : 250 : 1" sodipodi:type="inkscape:persp3d"/>
  </defs>
  <rect height="54.897781" id="rect3450" style="font-size:12px;fill:#ffffff;fill-opacity:1;fill-rule:evenodd;stroke:none;stroke-width:1pt" width="256" x="-3.3420532e-17" y="100.55106"/>
  <rect height="36.551113" id="rect3449" style="font-size:12px;fill:#006600;fill-opacity:1;fill-rule:evenodd;stroke-width:1pt" width="256" x="-3.3420532e-17" y="155.44888"/>
  <rect height="36.55117" id="rect3452" style="font-size:12px;fill:#cc0000;fill-opacity:1;fill-rule:evenodd;stroke-width:1pt" width="256" x="7.2425374e-15" y="64"/>
  <g id="g9911" style="fill:#ffcc00;fill-opacity:1" transform="matrix(0.256,0,0,0.256,0,64)">
    <path d="M 397.13817,260.19053 L 400.70911,271.95041 L 412.26939,271.69043 L 402.68109,278.87706 L 406.48978,290.29768 L 396.99292,282.97938 L 387.78656,290.29768 L 391.50548,278.58809 L 382.00693,271.69044 L 393.8022,271.77181 L 397.13817,260.19053 z" id="polygon3941" style="font-size:12px;fill:#ffcc00;fill-opacity:1;fill-rule:evenodd;stroke:none;stroke-width:0.90000004;stroke-miterlimit:4;stroke-dasharray:none;stroke-opacity:1"/>
    <path d="M 552.70162,168.70879 L 556.27256,180.46867 L 567.83283,180.20869 L 558.24456,187.39532 L 562.05322,198.81593 L 552.55638,191.49763 L 543.35001,198.81593 L 547.06893,187.10634 L 537.57039,180.2087 L 549.36566,180.29008 L 552.70162,168.70879 z" id="polygon3944" style="font-size:12px;fill:#ffcc00;fill-opacity:1;fill-rule:evenodd;stroke:none;stroke-width:0.90000004;stroke-miterlimit:4;stroke-dasharray:none;stroke-opacity:1"/>
    <path d="M 591.59233,210.0302 L 595.16328,221.79008 L 606.72356,221.5301 L 597.13528,228.71673 L 600.94394,240.13734 L 591.44706,232.81904 L 582.24072,240.13734 L 585.95961,228.42776 L 576.46111,221.53011 L 588.25633,221.61148 L 591.59233,210.0302 z" id="polygon3945" style="font-size:12px;fill:#ffcc00;fill-opacity:1;fill-rule:evenodd;stroke:none;stroke-width:0.90000004;stroke-miterlimit:4;stroke-dasharray:none;stroke-opacity:1"/>
    <path d="M 602.86183,260.19041 L 606.43278,271.95029 L 617.99306,271.69031 L 608.40472,278.87694 L 612.21344,290.29756 L 602.71656,282.97926 L 593.51022,290.29756 L 597.22911,278.58797 L 587.73061,271.69032 L 599.52583,271.77169 L 602.86183,260.19041 z" id="polygon3946" style="font-size:12px;fill:#ffcc00;fill-opacity:1;fill-rule:evenodd;stroke:none;stroke-width:0.90000004;stroke-miterlimit:4;stroke-dasharray:none;stroke-opacity:1"/>
    <path d="M 498.72949,217.59982 C 488.26189,218.09727 479.97948,224.70341 479.97949,232.72482 C 479.97949,239.55379 485.98286,245.32056 494.22949,247.19357 L 494.22949,285.72482 C 488.76098,294.64806 481.35214,299.26252 469.88574,299.00607 C 458.65074,299.22108 454.80999,295.67607 448.04199,286.75607 C 445.54599,292.96506 441.22124,307.02257 422.07324,306.56857 C 411.36182,306.85541 404.68049,303.27588 400.19824,293.06857 C 405.32328,307.60058 410.55776,315.7422 426.29199,316.25607 C 440.768,316.43006 447.40499,308.05257 450.54199,302.31857 C 460.97099,307.85856 462.03724,309.07182 476.82324,308.72482 C 487.86023,308.36981 494.20499,301.17957 499.91699,294.31857 C 505.62899,301.17956 511.97374,308.36982 523.01073,308.72482 C 537.79671,309.07181 538.86298,307.85857 549.29198,302.31857 C 552.42897,308.05256 559.03472,316.43007 573.51072,316.25607 C 589.309,315.74009 594.52322,307.5261 600.2295,293.13107 C 595.27272,303.3268 588.59328,306.95074 577.82322,306.66232 C 558.67522,307.11632 554.35048,293.05882 551.85448,286.84982 C 545.0865,295.76982 541.24573,299.31482 530.01073,299.09982 C 518.56822,299.35573 511.16339,294.77666 505.69824,285.84982 L 505.69824,247.19357 C 513.99344,245.34336 520.07322,239.57987 520.07323,232.72482 C 520.07323,224.38011 511.07233,217.59982 500.01074,217.59982 C 499.70827,217.59982 499.4037,217.5898 499.10449,217.59982 C 498.97976,217.604 498.85361,217.59392 498.72949,217.59982 z M 499.32324,226.81857 C 499.54544,226.81057 499.75376,226.81857 499.97949,226.81857 C 505.75824,226.81857 510.44824,229.47857 510.44824,232.75607 C 510.44824,236.03357 505.75824,238.69357 499.97949,238.69357 C 494.20074,238.69357 489.51074,236.03357 489.51074,232.75607 C 489.51074,229.6066 493.85724,227.01527 499.32324,226.81857 z M 600.3545,292.81857 C 600.33561,292.86003 600.34211,292.90221 600.32322,292.94357 C 600.34044,292.90292 600.33733,292.85943 600.3545,292.81857 z" id="path3952" style="fill:#ffcc00;fill-opacity:1;fill-rule:evenodd;stroke:none;stroke-width:0.96677995;stroke-linecap:butt;stroke-linejoin:miter;stroke-miterlimit:4;stroke-dasharray:none;stroke-opacity:1"/>
    <path d="M 451.60974,308.06507 L 456.83474,315.30607 L 466.85374,315.01207 L 459.12174,323.77407 L 443.98474,324.16107 L 439.24974,317.81907 L 447.99274,316.40607 L 451.66374,308.08607" id="path4048" style="font-size:12px;fill:#ffcc00;fill-opacity:1;fill-rule:evenodd;stroke:none;stroke-width:0.89999998;stroke-miterlimit:4;stroke-dasharray:none;stroke-opacity:1"/>
    <path d="M 487.36274,312.71707 C 487.36274,312.67807 494.23774,312.75607 494.23774,312.75607 L 500.01874,308.14707 L 505.66274,312.69807 L 512.47974,312.79607 L 506.34674,321.85807 L 493.45574,321.85807 L 487.36274,312.71707 z" id="path4053" style="fill:#ffcc00;fill-opacity:1;fill-rule:evenodd;stroke:none;stroke-width:0.89999998;stroke-linecap:butt;stroke-linejoin:miter;stroke-miterlimit:4;stroke-dasharray:none;stroke-opacity:1"/>
    <path d="M 574.33472,344.99107 C 547.60373,339.47207 529.71273,336.75707 499.92174,336.75707 C 470.13074,336.75707 452.23974,339.47207 425.67774,344.92507 L 425.64074,333.40007 C 452.23974,327.89707 470.13074,325.18107 499.92174,325.18107 C 529.71273,325.18107 547.60373,327.89707 574.20272,333.40007 L 574.33472,344.99107 z" id="path4100" style="font-size:12px;fill:#ffcc00;fill-opacity:1;fill-rule:evenodd;stroke:none;stroke-width:0.89999998;stroke-miterlimit:4;stroke-dasharray:none;stroke-opacity:1"/>
    <use height="496.06299" id="use1318" style="fill:#ffcc00;fill-opacity:1;stroke:none" transform="matrix(-1,0,0,1,999.7067,0)" width="992.12598" x="0" xlink:href="#path4048" y="0"/>
    <use height="496.06299" id="use1320" style="fill:#ffcc00;fill-opacity:1;stroke:none" transform="translate(11.4908,-50.38161)" width="992.12598" x="0" xlink:href="#polygon3941" y="0"/>
    <use height="496.06299" id="use1322" style="fill:#ffcc00;fill-opacity:1;stroke:none" transform="translate(50.3818,-91.48161)" width="992.12598" x="0" xlink:href="#polygon3941" y="0"/>
    <use height="496.06299" id="use1324" style="fill:#ffcc00;fill-opacity:1;stroke:none" transform="translate(102.7518,-105.1816)" width="992.12598" x="0" xlink:href="#polygon3941" y="0"/>
  </g>
</svg>

<svg xmlns="http://www.w3.org/2000/svg" xmlns:xlink="http://www.w3.org/1999/xlink" viewBox="0 0 256 256"><g fill-rule="evenodd"><path fill="#fff" d="m0 100.55h256v54.898h-256z"/><g stroke-width="1.25"><path fill="#060" d="m0 155.45h256v36.551h-256z"/><path fill="#c00" d="m0 64h256v36.551h-256z"/></g></g><g transform="matrix(.256 0 0 .256 0 64)" fill="#fc0"><path d="m397.14 260.19l3.571 11.76 11.56-.26-9.588 7.187 3.809 11.421-9.497-7.318-9.206 7.318 3.719-11.71-9.499-6.898 11.795.081 3.336-11.581" id="0" fill="#fc0" fill-rule="evenodd"/><g fill="#fc0" fill-rule="evenodd"><path d="m552.7 168.71l3.571 11.76 11.56-.26-9.588 7.187 3.809 11.421-9.497-7.318-9.206 7.318 3.719-11.71-9.499-6.898 11.795.081 3.336-11.581"/><path d="m591.59 210.03l3.571 11.76 11.56-.26-9.588 7.187 3.809 11.421-9.497-7.318-9.206 7.318 3.719-11.71-9.499-6.898 11.795.081 3.336-11.581"/><path d="m602.86 260.19l3.571 11.76 11.56-.26-9.588 7.187 3.809 11.421-9.497-7.318-9.206 7.318 3.719-11.71-9.499-6.898 11.795.081 3.336-11.581"/><path d="m498.73 217.6c-10.468.497-18.75 7.104-18.75 15.12 0 6.829 6 12.596 14.25 14.469v38.531c-5.469 8.923-12.877 13.538-24.344 13.281-11.235.215-15.08-3.33-21.844-12.25-2.496 6.209-6.821 20.266-25.969 19.813-10.711.287-17.393-3.293-21.875-13.5 5.125 14.532 10.36 22.674 26.09 23.19 14.476.174 21.11-8.204 24.25-13.938 10.429 5.54 11.495 6.753 26.28 6.406 11.04-.355 17.382-7.545 23.09-14.406 5.712 6.861 12.06 14.05 23.09 14.406 14.786.347 15.852-.866 26.28-6.406 3.137 5.734 9.743 14.11 24.22 13.938 15.798-.516 21.01-8.73 26.719-23.12-4.957 10.196-11.636 13.82-22.406 13.531-19.15.454-23.473-13.603-25.969-19.813-6.768 8.92-10.609 12.465-21.844 12.25-11.443.256-18.847-4.323-24.312-13.25v-38.656c8.295-1.85 14.375-7.614 14.375-14.469 0-8.345-9-15.12-20.06-15.12-.302 0-.607-.001-.906 0-.125.004-.251-.006-.375 0m.594 9.219c.222-.008.431 0 .656 0 5.779 0 10.469 2.66 10.469 5.938 0 3.278-4.69 5.938-10.469 5.938-5.779 0-10.469-2.66-10.469-5.938 0-3.149 4.346-5.741 9.813-5.938m101.03 66c-.019.041-.012.084-.031.125.017-.041.014-.084.031-.125"/></g><path d="m451.61 308.07l5.225 7.241 10.02-.294-7.732 8.762-15.14.387-4.735-6.342 8.743-1.413 3.671-8.32" id="1" fill="#fc0" fill-rule="evenodd"/><g fill="#fc0" fill-rule="evenodd"><path d="m487.36 312.72c0-.039 6.875.039 6.875.039l5.781-4.609 5.644 4.551 6.817.098-6.133 9.06h-12.891l-6.093-9.141"/><path d="m574.33 344.99c-26.731-5.519-44.622-8.234-74.41-8.234-29.791 0-47.682 2.715-74.24 8.168l-.037-11.525c26.599-5.503 44.49-8.219 74.28-8.219 29.791 0 47.682 2.716 74.28 8.219l.132 11.591"/></g><use height="496.06" transform="matrix(-1 0 0 1 999.71 0)" width="992.13" xlink:href="#1"/><use height="496.06" transform="translate(11.491-50.38)" width="992.13" xlink:href="#0"/><use height="496.06" transform="translate(50.38-91.48)" width="992.13" xlink:href="#0"/><use height="496.06" transform="translate(102.75-105.18)" width="992.13" xlink:href="#0"/></g></svg>
